X:121
T:Mairi's Wedding
D:Horses for Courses by the Riverside Ceilidh Band
Z:Nigel Gatherer
M:4/4
L:1/8
K:Bm
B>BB>B B>BB>B|B>BF>E D>EFA|B>BB>B B>BB>B|A>Ac>c B2 B z|
B>BB>B B>BB>B|F>FF>E D>EFA|B>BB>B B>BB>B|A>Ac>c B3 z|]
B,2 D2 F2 B2|F>FF>E D>EF>B|B,2 D2 F2 B2|A>Ac>c B2 B z:|]
